tools/download-figma-icons/icons/solid/package.svg

<svg width="24" height="24" viewBox="0 0 24 24" fill="none" xmlns="http://www.w3.org/2000/svg">
<path fill-rule="evenodd" clip-rule="evenodd" d="M5.0101 7.66667L16.245 2.04173L12.33 0.085002C12.12 -0.0282468 11.8725 -0.0282468 11.6625 0.085002L0.757645 5.5367L5.0101 7.66667ZM11.2499 23.7168V12.4669L0 6.84198V17.6269C0 17.9119 0.157498 18.1669 0.412496 18.2944L8.54241 22.3593L11.1674 23.6718L11.2499 23.7168ZM23.2424 5.5441L12 11.1615L6.69008 8.50656L17.925 2.88987L23.2424 5.5441ZM23.9998 17.6269V6.84198L12.7499 12.4669V23.7093L23.5798 18.2944C23.8348 18.1669 23.9998 17.9119 23.9998 17.6269Z" fill="black"/>
</svg>

<svg xmlns="http://www.w3.org/2000/svg" width="24" height="24" fill="none" viewBox="0 0 24 24"><path fill="currentColor" fill-rule="evenodd" d="m5.01 7.667 11.235-5.625L12.33.085a.7.7 0 0 0-.668 0L.758 5.537zm6.24 16.05v-11.25L0 6.842v10.785c0 .285.157.54.412.667l8.13 4.065 2.625 1.313zM23.242 5.544 12 11.162 6.69 8.507 17.925 2.89zM24 17.627V6.842l-11.25 5.625v11.242l10.83-5.415a.75.75 0 0 0 .42-.667" clip-rule="evenodd"/></svg>
